build/system/VideoOutline.svg

<svg xmlns="http://www.w3.org/2000/svg" fill="none" viewBox="0 0 24 24" focusable="false"><path d="M0 0H24V24H0z"/><path fill="#74767B" fill-rule="evenodd" d="M15.0503 9L15.0503 15C15.0503 16.6567 13.707 18 12.0503 18L5.2002 18C3.54346 18 2.2002 16.6567 2.2002 15L2.2002 9C2.2002 7.34326 3.54346 6 5.2002 6L12.0503 6C13.707 6 15.0503 7.34326 15.0503 9ZM12.0503 7.3L5.2002 7.3C5.06298 7.3 4.92953 7.31564 4.79985 7.34691C4.71113 7.36831 4.62414 7.39703 4.53896 7.43306C4.44848 7.47134 4.36255 7.51668 4.28118 7.56908C4.17977 7.6344 4.08543 7.71069 3.99816 7.79796C3.91089 7.88523 3.8346 7.97957 3.76928 8.08098C3.71687 8.16236 3.67153 8.24828 3.63326 8.33876C3.59723 8.42395 3.56851 8.5109 3.54711 8.59961C3.51584 8.72929 3.5002 8.86278 3.5002 9L3.5002 15C3.5002 15.1372 3.51583 15.2707 3.5471 15.4003C3.5685 15.4891 3.59722 15.576 3.63326 15.6612C3.67153 15.7517 3.71686 15.8376 3.76927 15.919C3.83459 16.0204 3.91088 16.1148 3.99816 16.202C4.08543 16.2893 4.17978 16.3656 4.28119 16.4309C4.36256 16.4833 4.44848 16.5287 4.53896 16.5669C4.62416 16.603 4.71112 16.6317 4.79984 16.6531C4.92952 16.6844 5.06297 16.7 5.2002 16.7L12.0503 16.7C12.1875 16.7 12.321 16.6844 12.4506 16.6531C12.5394 16.6317 12.6263 16.603 12.7115 16.5669C12.802 16.5287 12.8879 16.4833 12.9693 16.4309C13.0707 16.3656 13.1651 16.2893 13.2523 16.202C13.3396 16.1148 13.4159 16.0204 13.4812 15.919C13.5336 15.8376 13.579 15.7517 13.6172 15.6612C13.6533 15.5761 13.682 15.4891 13.7034 15.4004C13.7346 15.2708 13.7503 15.1372 13.7503 15L13.7503 9C13.7503 8.86278 13.7347 8.72932 13.7034 8.59964C13.682 8.51093 13.6533 8.42395 13.6172 8.33876C13.579 8.2483 13.5336 8.1624 13.4812 8.08104C13.4159 7.97963 13.3396 7.88523 13.2523 7.79796C13.1651 7.71069 13.0707 7.63439 12.9693 7.56907C12.8879 7.51667 12.802 7.47133 12.7115 7.43306C12.6263 7.39703 12.5394 7.36831 12.4506 7.34691C12.321 7.31564 12.1875 7.3 12.0503 7.3ZM16.3503 13.3059C16.3476 13.2721 16.3476 13.2378 16.3503 13.2034C16.356 13.1319 16.3737 13.0597 16.4043 12.9895C16.5503 12.656 16.9272 12.5085 17.2607 12.6545L19.4395 13.6077C19.5399 13.6516 19.6421 13.6696 19.7465 13.662C19.8127 13.6555 19.892 13.6379 19.9526 13.6118C19.988 13.5966 20.0223 13.578 20.0557 13.5562C20.1249 13.5083 20.1982 13.4393 20.2434 13.3711C20.2895 13.2892 20.3415 13.1584 20.3483 13.0628L20.3501 9.98779C20.3455 9.93262 20.3319 9.82166 20.3145 9.77124C20.3049 9.74839 20.2812 9.69264 20.269 9.6709C20.2234 9.58943 20.1628 9.5209 20.0868 9.4653C19.9964 9.40598 19.8672 9.34961 19.7622 9.33936C19.7222 9.33544 19.6824 9.33529 19.643 9.33892C19.5867 9.34746 19.4947 9.36818 19.4395 9.39233L17.2607 10.3455C16.9272 10.4915 16.5503 10.344 16.4043 10.0105C16.3737 9.94027 16.356 9.86812 16.3503 9.79662C16.3476 9.7622 16.3476 9.72794 16.3503 9.6941C16.3686 9.46445 16.5098 9.25483 16.7393 9.15454L18.9185 8.20117C19.2114 8.073 19.5143 8.01928 19.827 8.04044C19.9744 8.05484 20.1792 8.09033 20.3164 8.13623C20.4551 8.18252 20.588 8.24495 20.716 8.32335C20.9466 8.47723 21.2023 8.71256 21.3482 8.9432C21.4215 9.07381 21.5332 9.302 21.5742 9.44214C21.6125 9.57501 21.6364 9.71213 21.6456 9.85349C21.6485 9.89784 21.6499 9.94261 21.6499 9.98779L21.6499 13.0122C21.6499 13.1993 21.6251 13.3792 21.5759 13.5523C21.5388 13.6773 21.4854 13.8115 21.4226 13.9291C21.283 14.1671 21.0618 14.4361 20.8369 14.5966C20.5751 14.7631 20.1974 14.924 19.8896 14.9543C19.5791 14.9744 19.2095 14.9262 18.9185 14.7988L16.7393 13.8455C16.5098 13.7452 16.3686 13.5356 16.3503 13.3059Z"/></svg>

<svg xmlns="http://www.w3.org/2000/svg" fill="none" viewBox="0 0 24 24" focusable="false"><path fill="#74767B" fill-rule="evenodd" d="M15.05 9v6c0 1.65-1.35 3-3 3H5.2c-1.66 0-3-1.35-3-3V9c0-1.66 1.34-3 3-3h6.85c1.65 0 3 1.34 3 3m-3-1.7H5.2c-.14 0-.28.01-.41.04a1.965 1.965 0 0 0-.51.22c-.11.07-.2.15-.29.23-.08.09-.16.18-.23.29a2 2 0 0 0-.22.51c-.03.13-.04.27-.04.41v6c0 .13.01.27.04.4a1.965 1.965 0 0 0 .22.51c.07.11.15.2.23.29.09.08.18.16.29.23a2 2 0 0 0 .51.22c.13.03.27.05.41.05h6.85a1.614 1.614 0 0 0 .66-.14c.09-.04.17-.08.25-.13.11-.07.2-.15.29-.23.08-.09.16-.18.23-.29a2 2 0 0 0 .22-.51c.03-.13.05-.27.05-.4V9a1.614 1.614 0 0 0-.14-.67c-.04-.09-.08-.17-.13-.25-.07-.11-.15-.2-.23-.29-.09-.08-.18-.16-.29-.23a2 2 0 0 0-.51-.22 1.8 1.8 0 0 0-.4-.04m4.3 6a.17.17 0 0 1 0-.1.645.645 0 0 1 .91-.55l2.17.95c.11.05.21.06.31.06.07-.01.15-.03.21-.05.03-.02.07-.04.1-.06.07-.05.14-.12.19-.18.04-.09.1-.22.1-.31l.01-3.08c-.01-.05-.02-.16-.04-.21a.3.3 0 0 0-.05-.1.5.5 0 0 0-.18-.21.8.8 0 0 0-.32-.13h-.12a.8.8 0 0 0-.21.06l-2.17.95a.645.645 0 0 1-.91-.55.17.17 0 0 1 0-.1c.01-.23.15-.44.38-.54l2.18-.95c.3-.13.6-.19.91-.16.15.01.35.05.49.09.14.05.27.11.4.19.23.15.49.39.63.62.08.13.19.36.23.5.04.13.06.27.07.41v3.16c0 .18-.02.36-.07.54-.04.12-.09.26-.15.37-.14.24-.36.51-.59.67-.26.17-.64.33-.95.36-.31.02-.68-.03-.97-.16l-2.18-.95a.62.62 0 0 1-.38-.54"/></svg>
